src/assets/logo/ufc.svg

<?xml version="1.0" encoding="UTF-8" standalone="no"?><!DOCTYPE svg PUBLIC "-//W3C//DTD SVG 1.1//EN" "http://www.w3.org/Graphics/SVG/1.1/DTD/svg11.dtd"><svg width="100%" height="100%" viewBox="0 0 540 200" version="1.1" xmlns="http://www.w3.org/2000/svg" xmlns:xlink="http://www.w3.org/1999/xlink" xml:space="preserve" xmlns:serif="http://www.serif.com/" style="fill-rule:evenodd;clip-rule:evenodd;stroke-linejoin:round;stroke-miterlimit:1.41421;"><g id="ufc"><g><path id="path11" d="M115.918,39.524l46.352,0l-24.323,82.148c-1.707,5.763 1.915,10.516 7.882,10.516c5.97,0 12.115,-4.753 13.82,-10.516l24.324,-82.148l41.103,-0.001l-28.085,105.012c-2.479,9.263 -12.33,16.844 -21.891,16.844l-71.114,0c-11.363,0 -18.25,-9.007 -15.305,-20.021l27.237,-101.834Z" style="fill:#a0a0a0;fill-rule:nonzero;"/><path id="polygon13" d="M276.632,84.396l0,0.001l47.6,0l-8.647,28.443l-47.616,0l-13.218,48.539l-44.749,0l21.881,-76.983l44.749,0Z" style="fill:#a0a0a0;fill-rule:nonzero;"/><path id="path15" d="M369.246,38.291l60.536,0c8.855,0 23.886,7.126 20.81,18.459l-1.212,4.462l-54.019,0c-2.775,0 -5.662,2.235 -6.412,4.965l-16.788,61.067c-0.75,2.731 0.906,4.964 3.681,4.964l54.264,0l-3.934,14.491c-2.278,8.395 -11.258,15.301 -20.109,15.301l-63.907,0c-11.264,0 -18.184,-8.761 -15.377,-19.466l23.57,-89.867c2.073,-7.908 10.577,-14.376 18.897,-14.376Z" style="fill:#a0a0a0;fill-rule:nonzero;"/><path id="path17" d="M329.009,67.796l-47.502,0l-0.024,0.082l-44.749,0l8.609,-29.878c30.746,0 61.492,0 92.236,0l-8.57,29.796Z" style="fill:#a0a0a0;fill-rule:nonzero;"/></g></g></svg>

<?xml version="1.0" encoding="UTF-8" standalone="no"?>
<!DOCTYPE svg PUBLIC "-//W3C//DTD SVG 1.1//EN" "http://www.w3.org/Graphics/SVG/1.1/DTD/svg11.dtd">
<svg width="100%" height="100%" viewBox="0 0 540 200" version="1.1" xmlns="http://www.w3.org/2000/svg" xmlns:xlink="http://www.w3.org/1999/xlink" xml:space="preserve" xmlns:serif="http://www.serif.com/" style="fill-rule:evenodd;clip-rule:evenodd;stroke-linejoin:round;stroke-miterlimit:2;">
    <g id="ufc">
        <g>
            <path id="path11" d="M115.918,39.524L162.27,39.524L137.947,121.672C136.24,127.435 139.862,132.188 145.829,132.188C151.799,132.188 157.944,127.435 159.649,121.672L183.973,39.524L225.076,39.523L196.991,144.535C194.512,153.798 184.661,161.379 175.1,161.379L103.986,161.379C92.623,161.379 85.736,152.372 88.681,141.358L115.918,39.524Z" style="fill:rgb(208,208,208);fill-rule:nonzero;"/>
            <path id="polygon13" d="M276.632,84.396L276.632,84.397L324.232,84.397L315.585,112.84L267.969,112.84L254.751,161.379L210.002,161.379L231.883,84.396L276.632,84.396Z" style="fill:rgb(208,208,208);fill-rule:nonzero;"/>
            <path id="path15" d="M369.246,38.291L429.782,38.291C438.637,38.291 453.668,45.417 450.592,56.75L449.38,61.212L395.361,61.212C392.586,61.212 389.699,63.447 388.949,66.177L372.161,127.244C371.411,129.975 373.067,132.208 375.842,132.208L430.106,132.208L426.172,146.699C423.894,155.094 414.914,162 406.063,162L342.156,162C330.892,162 323.972,153.239 326.779,142.534L350.349,52.667C352.422,44.759 360.926,38.291 369.246,38.291Z" style="fill:rgb(208,208,208);fill-rule:nonzero;"/>
            <path id="path17" d="M329.009,67.796L281.507,67.796L281.483,67.878L236.734,67.878L245.343,38L337.579,38L329.009,67.796Z" style="fill:rgb(208,208,208);fill-rule:nonzero;"/>
        </g>
    </g>
</svg>
